picto/check-in-right-framed.svg

<svg class="color-immutable" width="30" height="30" viewBox="0 0 30 30" fill="none" xmlns="http://www.w3.org/2000/svg"><path d="M30 30H0V0H30V30Z" fill="#2D327D"/><path d="M25.5 3C26.325 3 27 3.675 27 4.5V25.5C27 26.325 26.325 27 25.5 27H4.5C3.675 27 3 26.325 3 25.5V4.5C3 3.675 3.675 3 4.5 3H25.5ZM25.5 2.625H4.5C3.46613 2.625 2.625 3.46613 2.625 4.5V25.5C2.625 26.5339 3.46613 27.375 4.5 27.375H25.5C26.5339 27.375 27.375 26.5339 27.375 25.5V4.5C27.375 3.46613 26.5339 2.625 25.5 2.625Z" fill="white"/><path d="M6.81887 20.0627L9.05582 21.7405L11.2901 20.2168L6.06917 14.2505L7.38084 13.5002L15.5625 17.3051L20.3886 14.0156C20.9729 13.6265 21.6594 13.4185 22.361 13.4185C22.7075 13.4185 23.0522 13.4686 23.3838 13.5689C23.8288 13.7027 24.1344 14.113 24.1344 14.5781C24.1344 14.7852 24.0731 14.9886 23.9579 15.1622V15.1613C23.655 15.6173 23.2667 16.0109 22.8143 16.3192L13.4992 22.668L8.32374 24.0068L5.88879 20.7609L6.81887 20.0627Z" fill="white"/><path d="M8.21332 7.38119C8.1969 7.61399 8.11897 7.81289 7.97954 7.97796C7.79699 8.19434 7.53862 8.30249 7.20435 8.30249C6.84855 8.30249 6.57165 8.17686 6.3738 7.92569C6.2046 7.71141 6.12 7.44374 6.12 7.12281C6.12 6.78651 6.2205 6.50601 6.4215 6.28146C6.6225 6.05796 6.88957 5.94614 7.22287 5.94614C7.5336 5.94614 7.7838 6.04866 7.97347 6.25379C8.10885 6.39839 8.1837 6.56496 8.19802 6.75366H7.71352C7.68682 6.62654 7.62997 6.52836 7.54282 6.45914C7.45567 6.38991 7.34542 6.35534 7.21215 6.35534C6.99885 6.35534 6.83939 6.44504 6.73379 6.62451C6.65482 6.76086 6.61537 6.92804 6.61537 7.12596C6.61537 7.32899 6.65692 7.49819 6.73994 7.63356C6.84554 7.80689 7.00192 7.89351 7.20907 7.89351C7.35675 7.89351 7.47442 7.84994 7.5621 7.76279C7.64977 7.67564 7.70384 7.54851 7.72439 7.38134H8.21332V7.38119Z" fill="white"/><path d="M8.95313 6V6.7998C9.00233 6.7116 9.07231 6.64267 9.16306 6.59295C9.25381 6.54322 9.35401 6.51833 9.46373 6.51833C9.68828 6.51833 9.84931 6.59782 9.94666 6.75675C10.0031 6.849 10.0313 6.99052 10.0313 7.18125V8.24865H9.58673V7.2612C9.58673 7.13813 9.56978 7.05308 9.53596 7.0059C9.48571 6.93615 9.40726 6.90127 9.30061 6.90127C9.16013 6.90127 9.05963 6.96277 8.99911 7.08585C8.98066 7.1238 8.96836 7.16535 8.96221 7.21042C8.95606 7.25557 8.95298 7.3278 8.95298 7.42732V8.24865H8.50696V6H8.95313Z" fill="white"/><path d="M11.8909 7.72572C11.8673 7.82007 11.8247 7.90872 11.7632 7.99182C11.6155 8.1938 11.4033 8.29482 11.1265 8.29482C10.8763 8.29482 10.6758 8.21585 10.5251 8.05797C10.4513 7.9811 10.3949 7.88825 10.3559 7.77957C10.3138 7.6637 10.2928 7.54272 10.2928 7.41657C10.2928 7.17252 10.363 6.96747 10.5036 6.80135C10.6605 6.61572 10.8635 6.52295 11.1127 6.52295C11.3137 6.52295 11.4849 6.58497 11.6264 6.70902C11.728 6.7982 11.8018 6.90822 11.8479 7.03895C11.894 7.16967 11.9171 7.334 11.9171 7.53192H10.7466C10.7507 7.61397 10.7635 7.68215 10.7851 7.73652C10.8456 7.88315 10.9604 7.9565 11.1296 7.9565C11.2126 7.9565 11.2804 7.93827 11.3326 7.9019C11.3849 7.86552 11.428 7.8068 11.4619 7.7258H11.8909V7.72572ZM11.4617 7.232C11.4535 7.151 11.4351 7.0838 11.4064 7.03047C11.3776 6.9782 11.3369 6.93665 11.2841 6.9059C11.2313 6.87515 11.1736 6.85977 11.1111 6.85977C11.0116 6.85977 10.9296 6.89307 10.865 6.95975C10.8004 7.02642 10.762 7.11717 10.7497 7.232H11.4617Z" fill="white"/><path d="M13.7412 7.60424C13.7196 7.77142 13.6638 7.91084 13.5735 8.02259C13.428 8.20409 13.2223 8.29484 12.9567 8.29484C12.684 8.29484 12.4717 8.20154 12.32 8.01494C12.1918 7.85602 12.1277 7.65967 12.1277 7.42589C12.1277 7.13677 12.2133 6.90862 12.3846 6.74144C12.5343 6.59587 12.7275 6.52304 12.9645 6.52304C13.1829 6.52304 13.3602 6.57967 13.4967 6.69299C13.633 6.80632 13.7109 6.96142 13.7304 7.15829H13.2921C13.2756 7.06912 13.2393 6.99989 13.1829 6.95062C13.1265 6.90142 13.0552 6.87682 12.969 6.87682C12.845 6.87682 12.7488 6.92369 12.6807 7.01752C12.6125 7.11134 12.5784 7.24282 12.5784 7.41202C12.5784 7.56172 12.6055 7.68224 12.6599 7.77344C12.7266 7.88519 12.8265 7.94107 12.9598 7.94107C13.1567 7.94107 13.272 7.82879 13.3059 7.60424H13.7412Z" fill="white"/><path d="M15.5715 6.5691L14.9578 7.18897L15.6423 8.24873H15.1008L14.6517 7.50585L14.4687 7.67962V8.24873H14.0227V6H14.4687V7.16738L15.0409 6.56902H15.5715V6.5691Z" fill="white"/><path d="M16.5528 7.21048V7.61038H15.6976V7.21048H16.5528Z" fill="white"/><path d="M17.3956 6V6.40147H16.9496V6H17.3956ZM17.3956 6.57217V8.24873H16.9496V6.57217H17.3956Z" fill="white"/><path d="M18.1756 6.57367V6.80902C18.2278 6.73724 18.2766 6.68444 18.3217 6.65062C18.4324 6.56452 18.5657 6.52139 18.7216 6.52139C18.859 6.52139 18.9754 6.55627 19.0707 6.62602C19.1466 6.68137 19.1996 6.75134 19.2298 6.83594C19.2601 6.92054 19.2752 7.03972 19.2752 7.19354V8.24864H18.8307V7.28737C18.8307 7.17974 18.8215 7.10077 18.803 7.05052C18.7856 7.00642 18.7558 6.97154 18.7138 6.94589C18.6656 6.91822 18.6108 6.90434 18.5493 6.90434C18.4816 6.90434 18.4201 6.92077 18.3647 6.95354C18.3094 6.98639 18.2683 7.03094 18.2416 7.08734C18.2119 7.15094 18.197 7.24987 18.197 7.38419V8.24857H17.751V6.57367H18.1756Z" fill="white"/></svg>

<svg class="color-immutable" width="30" height="30" viewBox="0 0 30 30" fill="none" xmlns="http://www.w3.org/2000/svg"><g clip-path="url(#a)"><path d="M30 30H0V0h30v30Z" fill="#2D327D"/><path d="M25.5 3c.825 0 1.5.675 1.5 1.5v21c0 .825-.675 1.5-1.5 1.5h-21c-.825 0-1.5-.675-1.5-1.5v-21C3 3.675 3.675 3 4.5 3h21Zm0-.375h-21A1.877 1.877 0 0 0 2.625 4.5v21c0 1.034.841 1.875 1.875 1.875h21a1.877 1.877 0 0 0 1.875-1.875v-21A1.877 1.877 0 0 0 25.5 2.625Z" fill="#fff"/><path d="m6.819 20.063 2.237 1.678 2.234-1.524-5.22-5.966 1.31-.75 8.183 3.804 4.826-3.29a3.56 3.56 0 0 1 2.995-.446 1.054 1.054 0 0 1 .574 1.593 4.24 4.24 0 0 1-1.144 1.157L13.5 22.668l-5.175 1.339-2.435-3.246.93-.698ZM8.213 7.381a1.01 1.01 0 0 1-.233.597c-.183.216-.441.324-.776.324-.355 0-.632-.125-.83-.376-.17-.215-.254-.482-.254-.803 0-.336.1-.617.301-.842.201-.223.469-.335.802-.335.31 0 .56.103.75.308.136.144.21.311.225.5h-.484a.49.49 0 0 0-.171-.295.515.515 0 0 0-.33-.104.52.52 0 0 0-.48.27.986.986 0 0 0-.118.501c0 .203.042.372.125.508.106.173.262.26.47.26a.479.479 0 0 0 .352-.131.629.629 0 0 0 .162-.382h.49ZM8.953 6v.8a.522.522 0 0 1 .21-.207.615.615 0 0 1 .3-.075c.225 0 .386.08.484.239.056.092.084.234.084.424V8.25h-.444V7.26c0-.123-.017-.208-.051-.255-.05-.07-.129-.105-.235-.105a.311.311 0 0 0-.302.185.41.41 0 0 0-.037.124c-.006.046-.009.118-.009.217v.822h-.446V6h.446ZM11.89 7.726a.751.751 0 0 1-.127.266c-.147.202-.36.303-.636.303-.25 0-.451-.08-.602-.237a.773.773 0 0 1-.17-.278 1.055 1.055 0 0 1-.062-.363c0-.244.07-.45.21-.616a.76.76 0 0 1 .61-.278c.2 0 .372.062.513.186.102.09.176.2.222.33.046.13.07.295.07.493h-1.171c.004.082.017.15.038.205.06.146.175.22.345.22.083 0 .15-.019.203-.055a.39.39 0 0 0 .129-.176h.429Zm-.428-.494a.54.54 0 0 0-.056-.202.338.338 0 0 0-.295-.17c-.1 0-.181.033-.246.1a.446.446 0 0 0-.115.272h.712ZM13.741 7.604a.817.817 0 0 1-.168.419c-.145.181-.35.272-.616.272-.273 0-.485-.093-.637-.28a.908.908 0 0 1-.192-.59c0-.288.085-.516.257-.684a.797.797 0 0 1 .58-.218c.218 0 .395.057.532.17a.663.663 0 0 1 .233.465h-.438a.35.35 0 0 0-.11-.207.314.314 0 0 0-.213-.074.335.335 0 0 0-.288.14c-.068.094-.103.226-.103.395a.7.7 0 0 0 .082.361.327.327 0 0 0 .3.168c.197 0 .312-.112.346-.337h.435ZM15.572 6.57l-.614.619.684 1.06h-.541l-.45-.743-.182.174v.569h-.446V6h.446v1.167l.572-.598h.53ZM16.553 7.21v.4h-.855v-.4h.855ZM17.396 6v.401h-.446V6h.446Zm0 .572V8.25h-.446V6.572h.446ZM18.176 6.574v.235a.632.632 0 0 1 .546-.288c.137 0 .253.035.349.105a.438.438 0 0 1 .159.21c.03.085.045.204.045.358v1.055h-.444v-.962a.74.74 0 0 0-.028-.236.211.211 0 0 0-.09-.105.356.356 0 0 0-.35.008.305.305 0 0 0-.121.133.74.74 0 0 0-.045.297v.865h-.446V6.574h.425Z" fill="#fff"/></g><defs><clipPath id="a"><path fill="#fff" d="M0 0h30v30H0z"/></clipPath></defs></svg>
